assets/Grinning face/Flat/grinning_face_flat.svg

<svg width="32" height="32" viewBox="0 0 32 32" fill="none" xmlns="http://www.w3.org/2000/svg">
<path d="M15.9989 29.9978C25.3333 29.9978 29.9978 23.7303 29.9978 15.9989C29.9978 8.26751 25.3333 2 15.9989 2C6.66443 2 2 8.26751 2 15.9989C2 23.7303 6.66443 29.9978 15.9989 29.9978Z" fill="#FFB02E"/>
<path d="M15 10.5C15 11.9239 14.3387 13.1933 13.3064 14.0179C12.5033 13.7485 11.4768 13.5 10.5 13.5C9.5232 13.5 8.49671 13.7485 7.69357 14.0179C6.66132 13.1933 6 11.9239 6 10.5C6 8.01472 8.01472 6 10.5 6C12.9853 6 15 8.01472 15 10.5Z" fill="white"/>
<path d="M26 10.5C26 11.9239 25.3387 13.1933 24.3064 14.0179C23.5033 13.7485 22.4768 13.5 21.5 13.5C20.5232 13.5 19.4967 13.7485 18.6936 14.0179C17.6613 13.1933 17 11.9239 17 10.5C17 8.01472 19.0147 6 21.5 6C23.9853 6 26 8.01472 26 10.5Z" fill="white"/>
<path d="M11 13C12.6569 13 14 11.6569 14 10C14 8.34315 12.6569 7 11 7C9.34315 7 8 8.34315 8 10C8 11.6569 9.34315 13 11 13Z" fill="#402A32"/>
<path d="M21 13C22.6569 13 24 11.6569 24 10C24 8.34315 22.6569 7 21 7C19.3431 7 18 8.34315 18 10C18 11.6569 19.3431 13 21 13Z" fill="#402A32"/>
<path d="M16 25C7 25 7 16 7 16H25C25 16 25 25 16 25Z" fill="#BB1D80"/>
<path d="M8 16.5V16H24V16.5C24 17.0523 23.5523 17.5 23 17.5H9C8.44772 17.5 8 17.0523 8 16.5Z" fill="white"/>
</svg>

<svg xmlns="http://www.w3.org/2000/svg" width="32" height="32" fill="none"><path fill="#FFB02E" d="M15.999 29.998c9.334 0 13.999-6.268 13.999-14 0-7.73-4.665-13.998-14-13.998C6.665 2 2 8.268 2 15.999c0 7.731 4.664 13.999 13.999 13.999Z"/><path fill="#fff" d="M15 10.5a4.492 4.492 0 0 1-1.694 3.518c-.803-.27-1.83-.518-2.806-.518-.977 0-2.003.248-2.806.518A4.5 4.5 0 1 1 15 10.5ZM26 10.5a4.492 4.492 0 0 1-1.694 3.518c-.803-.27-1.83-.518-2.806-.518-.977 0-2.003.248-2.806.518A4.5 4.5 0 1 1 26 10.5Z"/><path fill="#402A32" d="M11 13a3 3 0 1 0 0-6 3 3 0 0 0 0 6ZM21 13a3 3 0 1 0 0-6 3 3 0 0 0 0 6Z"/><path fill="#BB1D80" d="M16 25c-9 0-9-9-9-9h18s0 9-9 9Z"/><path fill="#fff" d="M8 16.5V16h16v.5a1 1 0 0 1-1 1H9a1 1 0 0 1-1-1Z"/></svg>
